brandFactory_export/2.Regular/Ambulancia_2Regular.svg

<?xml version="1.0" encoding="UTF-8"?>
<svg width="24px" height="24px" viewBox="0 0 24 24" version="1.1" xmlns="http://www.w3.org/2000/svg" xmlns:xlink="http://www.w3.org/1999/xlink">
    <title>2.Regular/Ambulancia_2Regular</title>
    <g id="Symbols" stroke="none" stroke-width="1" fill="none" fill-rule="evenodd">
        <g id="2.Regular/Ambulancia_2Regular" fill="#5CB615" fill-rule="nonzero">
            <path d="M21.8756303,17.092437 C22.0705882,16.897479 22.1882353,16.6453782 22.1882353,16.4201681 L22.1781513,13.005042 C22.1781513,12.6554622 21.8453782,12.2151261 21.6403361,11.9630252 C20.487395,10.4504202 19.3411765,8.93109244 18.2016807,7.40840336 C18.0369748,7.19663866 17.8117647,7.04537815 17.5563025,6.97142857 L17.5563025,14.8302521 C18.9478992,15.092437 19.8789916,16.0201681 20.1310924,17.4017508 L21.189916,17.4017508 C21.4252101,17.405042 21.6773109,17.287395 21.8756303,17.092437 L21.8756303,17.092437 Z M16.712605,20.2420168 C18.0537815,20.2420168 18.7394958,19.5697479 18.7394958,18.2352941 C18.7394958,16.9008403 18.0537815,16.2184874 16.712605,16.2184874 C15.3714286,16.2184874 14.6957983,16.9008403 14.6957983,18.2352941 C14.6957983,19.5697479 15.3714286,20.2420168 16.712605,20.2420168 L16.712605,20.2420168 Z M13.3042017,17.405042 C13.5663866,15.9529412 14.5781513,15.005042 16.0840336,14.8 L16.0840336,3.73445378 C16.0840336,3.61680672 15.9361345,3.4789916 15.7310924,3.4789916 L1.85546218,3.4789916 C1.65042017,3.4789916 1.50252101,3.60336134 1.50252101,3.72436975 L1.50252101,17.1495798 C1.50252101,17.2369748 1.6,17.3142857 1.71764706,17.3546218 C2.04033613,15.7344538 3.27731092,14.7495798 5.11596639,14.7495798 C6.97478992,14.7495798 8.22184874,15.7445378 8.53445378,17.4016807 L13.3042017,17.4016807 L13.3042017,17.405042 Z M5.11596639,20.2420168 C6.45714286,20.2420168 7.14285714,19.5697479 7.14285714,18.2352941 C7.14285714,16.9008403 6.45714286,16.2184874 5.11596639,16.2184874 C3.77478992,16.2184874 3.09915966,16.9008403 3.09915966,18.2352941 C3.09915966,19.5697479 3.77478992,20.2420168 5.11596639,20.2420168 Z M23.6470588,13.0084034 L23.6571429,16.4235294 C23.6571429,17.0352941 23.3815126,17.6605042 22.9142857,18.1277311 C22.4436975,18.594958 21.8151261,18.8672269 21.189916,18.8672269 L20.1613445,18.8672269 C19.9058824,20.6319328 18.6420168,21.7042017 16.712605,21.7042017 C14.7831933,21.7042017 13.5193277,20.6319328 13.2739496,18.8672269 L8.55462185,18.8672269 C8.3092437,20.6319328 7.04537815,21.7042017 5.11596639,21.7042017 C3.17647059,21.7042017 1.91260504,20.6218487 1.67731092,18.8470588 C0.756302521,18.7596639 0.0302521008,18.0369748 0.0302521008,17.1495798 L0.0302521008,3.72436975 C0.0302521008,2.77647059 0.843697479,2.01680672 1.85210084,2.01680672 L15.7310924,2.01680672 C16.7394958,2.01680672 17.5529412,2.78655462 17.5529412,3.73445378 L17.5529412,5.48907563 C18.2789916,5.58655462 18.9747899,5.97647059 19.394958,6.5512605 C20.5210084,8.06386555 21.6571429,9.5697479 22.8033613,11.0655462 C23.0991597,11.4487395 23.6470588,12.1579832 23.6470588,13.0084034 Z M12.4537815,10.1008403 L12.4537815,8.90756303 L10.1243697,8.91092437 C9.7210084,8.91092437 9.39159664,8.58487395 9.38823529,8.17815126 L9.38823529,5.86554622 L8.19159664,5.86554622 L8.19159664,8.18487395 C8.19159664,8.58823529 7.86218487,8.91764706 7.45882353,8.91764706 L5.12941176,8.9210084 L5.12941176,10.107563 L7.46218487,10.107563 C7.86890756,10.107563 8.19495798,10.4336134 8.19495798,10.8369748 L8.19831933,13.1563025 L9.39159664,13.1563025 L9.38823529,10.8369748 C9.38823529,10.4336134 9.71764706,10.1042017 10.1210084,10.1042017 L12.4537815,10.1042017 L12.4537815,10.1008403 L12.4537815,10.1008403 Z M12.7226891,7.4487395 C13.3747899,7.4487395 13.9226891,7.95294118 13.9226891,8.54789916 L13.9226891,10.4638655 C13.9226891,11.0588235 13.3714286,11.5630252 12.7226891,11.5630252 L10.8638655,11.5630252 L10.8638655,13.4184874 C10.8638655,14.0672269 10.3563025,14.6151261 9.76134454,14.6151261 L7.83865546,14.6151261 C7.24033613,14.6151261 6.73613445,14.0672269 6.73613445,13.4184874 L6.73613445,11.5663866 L4.87058824,11.5663866 C4.22184874,11.5663866 3.67058824,11.0655462 3.67058824,10.4672269 L3.67058824,8.5512605 C3.67058824,7.95630252 4.22184874,7.45210084 4.87058824,7.45210084 L6.73277311,7.45210084 L6.73277311,5.59663866 C6.73277311,4.94789916 7.24033613,4.4 7.83865546,4.4 L9.76134454,4.4 C10.3596639,4.4 10.8672269,4.94789916 10.8672269,5.59663866 L10.8672269,7.4487395 L12.7226891,7.4487395 L12.7226891,7.4487395 Z" id="Ambulancia_2Regular"></path>
        </g>
    </g>
</svg>

<svg width="24" height="24" viewBox="0 0 24 24" xmlns="http://www.w3.org/2000/svg"><path d="M21.876 17.092c.195-.195.312-.447.312-.672l-.01-3.415c0-.35-.333-.79-.538-1.042a645.958 645.958 0 01-3.438-4.555 1.258 1.258 0 00-.646-.437v7.86c1.392.261 2.323 1.19 2.575 2.57h1.059c.235.004.487-.114.686-.309zm-5.163 3.15c1.34 0 2.026-.672 2.026-2.007 0-1.334-.685-2.017-2.026-2.017-1.342 0-2.017.683-2.017 2.017 0 1.335.675 2.007 2.017 2.007zm-3.409-2.837c.262-1.452 1.274-2.4 2.78-2.605V3.734c0-.117-.148-.255-.353-.255H1.855c-.205 0-.352.124-.352.245V17.15c0 .087.097.164.215.205.322-1.62 1.56-2.605 3.398-2.605 1.859 0 3.106.995 3.418 2.652h4.77v.003zm-8.188 2.837c1.341 0 2.027-.672 2.027-2.007 0-1.334-.686-2.017-2.027-2.017-1.341 0-2.017.683-2.017 2.017 0 1.335.676 2.007 2.017 2.007zm18.531-7.234l.01 3.416c0 .611-.275 1.237-.743 1.704-.47.467-1.099.74-1.724.74H20.16c-.255 1.764-1.519 2.836-3.448 2.836-1.93 0-3.194-1.072-3.44-2.837H8.556c-.246 1.765-1.51 2.837-3.439 2.837-1.94 0-3.203-1.082-3.439-2.857C.757 18.76.03 18.037.03 17.15V3.724c0-.948.814-1.707 1.822-1.707h13.88c1.007 0 1.82.77 1.82 1.717V5.49c.727.098 1.423.487 1.843 1.062a406.727 406.727 0 003.408 4.515c.296.383.844 1.092.844 1.942zm-11.193-2.907V8.908l-2.33.003a.737.737 0 01-.736-.733V5.866H8.192v2.319c0 .403-.33.733-.733.733l-2.33.003v1.187h2.333a.73.73 0 01.733.729l.003 2.32h1.194l-.004-2.32c0-.403.33-.733.733-.733h2.333v-.003zm.269-2.652c.652 0 1.2.504 1.2 1.099v1.916c0 .595-.552 1.099-1.2 1.099h-1.86v1.855c0 .65-.507 1.197-1.102 1.197H7.84c-.599 0-1.103-.548-1.103-1.197v-1.852H4.871c-.65 0-1.2-.5-1.2-1.099V8.551c0-.595.55-1.099 1.2-1.099h1.862V5.597c0-.65.507-1.197 1.106-1.197H9.76c.599 0 1.106.548 1.106 1.197v1.852h1.856z" fill="#5CB615" fill-rule="nonzero"/></svg>
